src/assets/RightArrow.svg

<svg fill="none" height="8" viewBox="0 0 17 8" width="17" xmlns="http://www.w3.org/2000/svg"><path d="m16.3536 4.35355c.1952-.19526.1952-.51184 0-.7071l-3.182-3.181984c-.1953-.195262-.5119-.195262-.7071 0-.1953.195262-.1953.511845 0 .707104l2.8284 2.82843-2.8284 2.82843c-.1953.19526-.1953.51184 0 .7071.1952.19527.5118.19527.7071 0zm-16.3536.14645h16v-1h-16z" fill="#1855d1"/></svg>

<svg width="17" height="8" viewBox="0 0 17 8" fill="none" xmlns="http://www.w3.org/2000/svg">
<path d="M16.3536 4.35355C16.5488 4.15829 16.5488 3.84171 16.3536 3.64645L13.1716 0.464466C12.9763 0.269204 12.6597 0.269204 12.4645 0.464466C12.2692 0.659728 12.2692 0.976311 12.4645 1.17157L15.2929 4L12.4645 6.82843C12.2692 7.02369 12.2692 7.34027 12.4645 7.53553C12.6597 7.7308 12.9763 7.7308 13.1716 7.53553L16.3536 4.35355ZM0 4.5H16V3.5H0V4.5Z" fill="#1855D1"/>
</svg>
